X:1
T:Title
%%score { ( 1 4 5 ) | ( 2 3 ) }
L:1/8
M:4/4
K:Eb
V:1 treble nm="Grand Piano"
V:4 treble 
V:5 treble 
V:2 bass 
V:3 bass 
V:1
 z4 z2[Q:1/4=96] [EG][FA] | [GB]2 [GB][GB] [Ad][Ad][DAc][DAB] | %2
 [EGB]2 [EG]2- [EG][B,EG][B,FA][EGB] | [EAc]3 [EAc] [=Af][Ae] d/-[Fd]c/ | [DB]6 [EG][FA] | %5
 [GB]2 [GB][GB] [Ad][Ad][DAc][DAB] |[M:5/8] G2- [Ge]3 |[M:3/8] [Ge][Bd][Ac] | %8
[M:4/4] [GB]3 [EG] [FA][FA][EG][DF] |[M:3/4] E6 |[M:1/4] GG |[M:4/4] [FA]2 [DF]4 z2 | %12
 [EG]2 [GB]4 z2 | F2 [EG]2 z4 | [B,DB]6 BB | [GB]-[EGB] B,2 B,2 BB | %16
[M:17/16] [Ac]-[EAc][ce]-<[ce]-[Ece]3/2edc |[M:19/16] B-<B[Ac]-<[Ac] z/ z/ z/ z/ z/ z/ z/ z/ z/ z | %18
[M:3/4] [Ge]6 |] %19
V:2
 z4 z2 [E,B,][E,B,] | [E,E]2 [E,E][E,E] [F,B,][F,B,]B,,B,, | z2 B,2- B,E,E,E, | %3
 A,3 A, [F,E][F,C] [F,B,]>[F,=A,E] | [B,,B,]6 [E,B,][E,B,] | [E,E]2 [E,E][E,E] [F,B,][F,B,]B,,B,, | %6
[M:5/8] z2 B,3 |[M:3/8] [E,B,][E,B,][E,E] |[M:4/4] [E,E]3 [E,B,] [B,,B,][B,,B,][B,,B,][B,,A,] | %9
[M:3/4] [E,G,]6 |[M:1/4] EE |[M:4/4] B,,B,, B,,2 B,,2 DD | E,E, E,2 z[K:treble] GFE | %13
 D2[K:bass] z2 z4 | B,,6[K:treble] AA | E,E, E,2 E,2[K:treble] GG |[M:17/16] A,A,A,-<A,A,3/2cBA | %17
[M:19/16] G-<G[K:bass] z/ z/ z/ z/ z/ z/ z/ z/ z/ z/ z/ z/ z/ z |[M:3/4] [E,B,]6 |] %19
V:3
 x8 | x8 | E,6 z2 | x8 | x8 | x8 |[M:5/8] E,-E,- E,3 |[M:3/8] x3 |[M:4/4] x8 |[M:3/4] x6 | %10
[M:1/4] x2 |[M:4/4] x8 | z4 E,2[K:treble] z2 | z[K:bass] F,F,F, F,2 F,2 | x6[K:treble] x2 | %15
 x6[K:treble] x2 |[M:17/16] x17/2 |[M:19/16] z[K:bass] B,B,B,B,/-B,/-B,/-B,/-B,/-B,-<B,[E,B,] | %18
[M:3/4] x6 |] %19
V:4
 x8 | x8 | x8 | z4 z2 .B2 | x8 | x8 |[M:5/8] [EB]2 z z2 |[M:3/8] x3 |[M:4/4] x8 |[M:3/4] x6 | %10
[M:1/4] x2 |[M:4/4] B,B, B,2 B,2 FF | B,B, E2 z BAG | z B,=A,A, [CE=A]2 [CEF]2 | x8 | %15
 .E2 [EG]4 z2 |[M:17/16] E z E-<E z/ z/ z/ z/ z/ z/ z/ z | %17
[M:19/16] z EDC[Ad]/-[Ad]/-[Ad]/-[Ad]/-[Ad]/-[Ad]-<[Ad][Ge] |[M:3/4] x6 |] %19
V:5
 x8 | x8 | x8 | x8 | x8 | x8 |[M:5/8] x5 |[M:3/8] x3 |[M:4/4] x8 |[M:3/4] x6 |[M:1/4] x2 | %11
[M:4/4] x8 | z4 E2 z2 | x8 | x8 | x8 |[M:17/16] x17/2 |[M:19/16] x19/2 |[M:3/4] x6 |] %19

